svg/zinc.svg

<?xml version="1.0" encoding="UTF-8" standalone="no"?>
<!-- Created with Inkscape (http://www.inkscape.org/) -->

<svg
   width="32"
   height="32"
   viewBox="0 0 8.4666666 8.4666668"
   version="1.1"
   id="svg5"
   inkscape:version="1.1.2 (b8e25be8, 2022-02-05)"
   sodipodi:docname="zinc.svg"
   xmlns:inkscape="http://www.inkscape.org/namespaces/inkscape"
   xmlns:sodipodi="http://sodipodi.sourceforge.net/DTD/sodipodi-0.dtd"
   xmlns="http://www.w3.org/2000/svg"
   xmlns:svg="http://www.w3.org/2000/svg"
   xmlns:rdf="http://www.w3.org/1999/02/22-rdf-syntax-ns#"
   xmlns:cc="http://creativecommons.org/ns#">
  <sodipodi:namedview
     id="namedview7"
     pagecolor="#ffffff"
     bordercolor="#111111"
     borderopacity="1"
     inkscape:pageshadow="0"
     inkscape:pageopacity="0"
     inkscape:pagecheckerboard="1"
     inkscape:document-units="mm"
     showgrid="true"
     width="32mm"
     units="px"
     objecttolerance="10000"
     guidetolerance="10000"
     inkscape:snap-perpendicular="true"
     inkscape:snap-tangential="true"
     inkscape:zoom="34.90625"
     inkscape:cx="16"
     inkscape:cy="16"
     inkscape:window-width="2560"
     inkscape:window-height="1301"
     inkscape:window-x="0"
     inkscape:window-y="25"
     inkscape:window-maximized="0"
     inkscape:current-layer="layer1"
     gridtolerance="10000">
    <inkscape:grid
       type="xygrid"
       id="grid9"
       units="px"
       empspacing="2" />
  </sodipodi:namedview>
  <defs
     id="defs2" />
  <g
     inkscape:label="Layer 1"
     inkscape:groupmode="layer"
     id="layer1">
    <path
       id="path6913"
       style="fill:#000000;fill-opacity:1;stroke:none;stroke-width:0.309422"
       d="M 6.6145833,5.8208333 V 4.7625 h -0.00206 A 1.0583332,1.0855733 0 0 0 5.55625,3.7041666 1.0583332,1.0855733 0 0 0 4.9552532,3.8969198 H 4.954724 L 4.7625,3.7041666 H 4.4979166 V 5.8208333 H 5.0270833 V 4.7625 A 0.52916663,0.52916663 0 0 1 5.55625,4.2333333 0.52916663,0.52916663 0 0 1 6.0854166,4.7625 v 1.0583333 z" />
    <path
       style="fill:#000000;fill-opacity:1;stroke:none;stroke-width:0.264583px;stroke-linecap:butt;stroke-linejoin:miter;stroke-opacity:1"
       d="M 1.8520833,2.6458333 V 3.175 H 3.175 L 1.8520833,5.8208333 H 3.96875 V 5.2916666 H 2.6458333 L 3.96875,2.6458333 Z"
       id="path1145" />
  </g>
  <metadata
     id="metadata33">
    <rdf:RDF>
      <cc:Work
         rdf:about="">
        <cc:license
           rdf:resource="http://creativecommons.org/licenses/by-sa/4.0/" />
      </cc:Work>
      <cc:License
         rdf:about="http://creativecommons.org/licenses/by-sa/4.0/">
        <cc:permits
           rdf:resource="http://creativecommons.org/ns#Reproduction" />
        <cc:permits
           rdf:resource="http://creativecommons.org/ns#Distribution" />
        <cc:requires
           rdf:resource="http://creativecommons.org/ns#Notice" />
        <cc:requires
           rdf:resource="http://creativecommons.org/ns#Attribution" />
        <cc:permits
           rdf:resource="http://creativecommons.org/ns#DerivativeWorks" />
        <cc:requires
           rdf:resource="http://creativecommons.org/ns#ShareAlike" />
      </cc:License>
    </rdf:RDF>
  </metadata>
</svg>

<svg width="32" height="32" viewBox="0 0 8.467 8.467" xmlns="http://www.w3.org/2000/svg"><path style="fill:#000;fill-opacity:1;stroke:none;stroke-width:.309422" d="M6.615 5.82V4.763h-.002a1.058 1.086 0 0 0-1.057-1.058 1.058 1.086 0 0 0-.6.193h-.001l-.192-.193h-.265v2.117h.53V4.763a.53.53 0 0 1 .528-.53.53.53 0 0 1 .53.53V5.82z"/><path style="fill:#000;fill-opacity:1;stroke:none;stroke-width:.264583px;stroke-linecap:butt;stroke-linejoin:miter;stroke-opacity:1" d="M1.852 2.646v.529h1.323L1.852 5.821H3.97v-.53H2.646l1.323-2.645Z"/></svg>
